!!!!SEGMENT: d-b--slg-bohn-ms-mus-111--007_jarzebski-adam--canzoni-e-concerti-7-cantate-domino-secunda-pars.krn
!!!cenid: 16xx:1780
!!!COM: Jarzębski, Adam
!!!COM-rismID: pe30017782
!!!CDT:
!!!CNT:
!!!GTL: Canzoni e Concerti
!!!OTL: 7. Cantate Domino – Secunda Pars
!!!PDT: 1627
!!!AGN:
!!!SMS-siglum: D-B
!!!SMS-shelfmark: Slg Bohn Ms.mus. 111
!!!SMS-shelfwork: 007 G
!!!SMS-variant:
!!!SMS-altvar:
!!!NIFC-rismSourceID: 1001062014
!!!NIFC-rismChildID: 1001062014
!!!NIFC-islandoraID:
!!!URL-pdf-islandora:
!!!URL-scan: https://digital.staatsbibliothek-berlin.de/werkansicht/?PPN=PPN1049147219
!!!ONB-nifc: UWAGA: Prima vox: s. 12-13, Seconda vox: s. 72-73, Basso continuo: s. 168-169. Uwaga: proszę wpisywać partie tylko występujące w danym koncercie i nazywać partie wg określeń podawanych przy danym utworze. Kody instr. dla humdrumowców podane zostaną na forum.
!!!AIN: 1 empty 1 tenor 1 vox
!!!key: d-dor
!!!filter-modern: sic -sq | shed -e "s/TX(.*):t=P:/tx$1:t=P:/LG" | shed -k -e "s/LO:N:acc/LO:n:acc:/L" | shed -e "s/^custos:/Xcustos:/I" | shed -k -e "s/#X/#/g" | shed -k -e "s/-X/-/g" | shed -k -e "s/LO:N:vis/LO:n:vis:/L" | shed -e "s/:rj/:RJ/L" | shed -e "s/LO:DY:(a|b|rj)/LO:dy:$1/L" | shed -e "s/-//B" | modori -m | tie -s | autostem -r
**kern	**fba	**kern	**dynam	**kern	**dynam
*part3	*	*part2	*part2	*part1	*part1
*	*	*group1	*	*group1	*
*staff3	*	*staff2	*	*staff1	*
*Iempty	*	*Itenor	*	*Ivox	*
*I"Baſso Continúo.	*	*I"Tenore.	*	*I"Canto.	*
*mI"Basso continuo	*	*mI"Tenore	*	*mI"Soprano	*
*I'bc	*	*I'T	*	*I'S	*
*ICklav	*	*	*	*	*
*IGcont	*	*	*	*	*
*clefC4	*	*clefC4	*	*clefG2	*
*	*	*mclefGv2	*	*	*
*k[b-]	*	*k[b-]	*	*k[b-]	*
*g:	*	*g:	*	*g:	*
*M2/2	*	*M2/2	*	*M2/2	*
*met(C|)	*	*met(C|)	*	*met(C|)	*
*mmet(c|)	*	*mmet(c|)	*	*mmet(c|)	*
=1-	=1-	=1-	=1-	=1-	=1-
!!LO:TX:t=P:problem:nie wprowadzamy kodów instrumentów, nie zostały jeszcze ustalone [konsultacja z E.Z.]
!!LO:TX:t=P:problem:4,8,16\right, 2\middle:global
1G	.	1G	.	1r	.
=2-	=2-	=2-	=2-	=2-	=2-
2.B-\	.	2.B-\	.	1dd	.
!LO:TX:t=P:problem:kreska pseudotaktowa	!	!	!	!	!
4c\	.	4c\	.	.	.
=3-	=3-	=3-	=3-	=3-	=3-
2d\	.	2d\	.	2ff\	.
2e-X\	.	2e-X\	.	2gg\	.
=4-	=4-	=4-	=4-	=4-	=4-
2d\	.	8.d\L	.	[2aa\	.
.	.	16e-X\Jk	.	.	.
.	.	8.d\L	.	.	.
.	.	16c\Jk	.	.	.
4B-\	.	4B-\	.	8aa\L]	.
.	.	.	.	8bb-\J	.
!LO:TX:t=P:problem:kreska pseudotaktowa	!	!	!	!	!
4c\	.	4c\	.	8.aa\L	.
.	.	.	.	16gg\Jk	.
=5-	=5-	=5-	=5-	=5-	=5-
2d\	.	4d\	.	4ff\	.
.	.	4eny\	.	4gg\	.
2D/	.	2.f\	.	1aa	.
=6-	=6-	=6-	=6-	=6-	=6-
2F/	.	.	.	.	.
.	.	8e\L	.	.	.
.	.	8d\J	.	.	.
!LO:TX:t=P:problem:kreska pseudotaktowa	!	!	!	!	!
2G/	.	8.e\L	.	8.gg\L	.
.	.	16d\Jk	.	16ff\Jk	.
.	.	8.c\L	.	8.ee\L	.
!	!	!LO:TX:t=P:problem:kreska pseudotaktowa	!	!	!
.	.	16B-\Jk	.	16dd\Jk	.
=7-	=7-	=7-	=7-	=7-	=7-
2A/	.	4A/	.	8cc\L	.
.	.	.	.	8a\J	.
.	.	2f\	.	2aa\	.
2B-\	.	.	.	.	.
.	.	8.e\L	.	2gg\	.
.	.	16d\Jk	.	.	.
*	*	*custos:c	*	*	*
!	!	!LO:LB:g=original	!	!	!
=8-	=8-	=8-	=8-	=8-	=8-
!LO:TX:t=P:problem:kreska pseudotaktowa	!	!	!	!	!
1A	.	4c#X\	.	.	.
.	.	2d\	.	4ff\	.
.	.	.	.	2ee\	.
!	!	!LO:TX:t=P:problem:♯ above	!	!	!
.	.	4c#X\	.	.	.
=9-	=9-	=9-	=9-	=9-	=9-
2D/	.	2d\	.	1dd	.
*clefF4	*	*clefF4	*	*	*
!LO:TX:t=P:problem:klucz ze znakiem przykluczowym	!	!	!	!	!
2GG/	.	4r	.	.	.
.	.	4GG/	.	.	.
=10-	=10-	=10-	=10-	=10-	=10-
2.BB-/	.	2.BB-/	.	2r	.
.	.	.	.	2dd\	.
!	!	!LO:TX:t=P:problem:kreska pseudotaktowa	!	!	!
4C/	.	4C/	.	.	.
*custos:D	*	*	*	*custos:ff	*
!LO:LB:g=original	!	!	!	!LO:LB:g=original	!
=11-	=11-	=11-	=11-	=11-	=11-
2D/	.	8D/L	.	8ff\L	.
.	.	16BB-/L	.	16dd\L	.
.	.	16C/JJ	.	16ee\	.
.	.	16D\LL	.	16ff\	.
!	!	!LO:TX:t=P:problem::♭ above	!	!	!
.	.	16E-X\	.	16gg\	.
.	.	16F\	.	16aa\	.
.	.	16D\JJ	.	16ff\JJ	.
4E-X\	.	4.E-X\	.	4.gg\	.
4C/	.	.	.	.	.
.	.	16F\LL	.	16aa\LL	.
!	!	!LO:TX:t=P:problem:kreska pseudotaktowa	!	!LO:TX:t=P:problem:kreska pseudotaktowa	!
.	.	16G\JJ	.	16bb-\JJ	.
=12-	=12-	=12-	=12-	=12-	=12-
2D/	.	4D/	.	2aa\	.
.	.	32D/LLL	.	.	.
.	.	32E-/	.	.	.
.	.	32F/	.	.	.
.	.	32E-/	.	.	.
.	.	32D/	.	.	.
.	.	32C/	.	.	.
.	.	32BB-/	.	.	.
.	.	32AA/JJJ	.	.	.
!LO:TX:t=P:problem:kreska pseudotaktowa	!	!	!	!	!
2BB-/	.	2BB-/	.	4r	.
.	.	.	.	4gg\	.
=13-	=13-	=13-	=13-	=13-	=13-
2C/	.	2C/	.	8gg\L	.
.	.	.	.	16aa\L	.
.	.	.	.	16bb-\JJ	.
.	.	.	.	8.aa\L	.
.	.	.	.	16gg\Jk	.
2D/	.	2D/	.	8ff#X\L	.
!	!	!	!	!	!LO:DY:b:t=forte.
.	.	.	.	16dd\L	f
.	.	.	.	16ee\	.
!	!	!	!	!LO:TX:t=P:problem:♯ above	!
.	.	.	.	16ff#X\	.
.	.	.	.	16gg\	.
.	.	.	.	16aa\	.
!	!	!	!	!LO:TX:t=P:problem:kreska pseudotaktowa	!
!	!	!	!	!LO:TX:t=P:problem:♯ above	!
.	.	.	.	16ff#X\JJ	.
=14-	=14-	=14-	=14-	=14-	=14-
!LO:TX:t=P:problem:kreska pseudotaktowa	!	!	!	!	!
1GG	.	2GG/	.	8gg\L	.
!	!	!	!	!	!LO:DY:b:t=Piano.
.	.	.	.	16dd\L	p
.	.	.	.	16ee\	.
!	!	!	!	!LO:TX:t=P:problem:♯ above	!
.	.	.	.	16ff#X\	.
.	.	.	.	16gg\	.
.	.	.	.	16aa\	.
!	!	!	!	!LO:TX:t=P:problem:♯ above	!
.	.	.	.	16ff#X\JJ	.
.	.	4r	.	2gg\	.
!	!	!LO:TX:t=P:problem:kreska pseudotaktowa	!	!	!
.	.	4G\	.	.	.
*	*	*custos:G	*	*	*
!	!	!LO:LB:g=original	!	!	!
=15-	=15-	=15-	=15-	=15-	=15-
1D	.	8G\L	.	0r	.
.	.	16A\L	.	.	.
.	.	16B-\JJ	.	.	.
.	.	8.A\L	.	.	.
.	.	16G\Jk	.	.	.
!	!	!	!LO:DY:b:t=forte	!	!
.	.	8F#X\L	f	.	.
.	.	16D\L	.	.	.
.	.	16Eny\	.	.	.
!	!	!LO:TX:t=P:problem:♯ above	!	!	!
.	.	16F#X\	.	.	.
.	.	16G\	.	.	.
.	.	16A\	.	.	.
!	!	!LO:TX:t=P:problem:kreska pseudotaktowa	!	!	!
!	!	!LO:TX:t=P:problem:♯ above	!	!	!
.	.	16F#X\JJ	.	.	.
=16-	=16-	=16-	=16-	=16-	=16-
!	!	!	!LO:DY:b:t=piano	!	!
2GG/	.	8G\L	p	.	.
.	.	16D\L	.	.	.
.	.	16E\	.	.	.
!	!	!LO:TX:t=P:problem:♯ above	!	!	!
.	.	16F#X\	.	.	.
.	.	16G\	.	.	.
.	.	16A\	.	.	.
!	!	!LO:TX:t=P:problem:♯ above	!	!	!
.	.	16F#X\JJ	.	.	.
!LO:TX:t=P:problem:kreska pseudotaktowa	!	!	!	!	!
2G\	.	8G\L	.	.	.
.	.	8G\	.	.	.
.	.	8G\	.	.	.
!	!	!LO:TX:t=P:problem:kreska pseudotaktowa	!	!	!
.	.	8G\J	.	.	.
=17-	=17-	=17-	=17-	=17-	=17-
2F\	.	8Fny\L	.	2r	.
.	.	16D\L	.	.	.
.	.	16E\	.	.	.
.	.	16F\	.	.	.
.	.	16D\	.	.	.
.	.	16F\	.	.	.
.	.	16E\JJ	.	.	.
!	!	!LO:TX:t=P:problem:kreska pseudotaktowa	!	!	!
2D/	.	2D/	.	8r	.
.	.	.	.	8dd\L	.
.	.	.	.	8dd\	.
!	!	!	!	!LO:TX:t=P:problem:kreska pseudotaktowa	!
.	.	.	.	8dd\J	.
=18-	=18-	=18-	=18-	=18-	=18-
2.F\	.	8r	.	8cc\	.
.	.	8A\L	.	16b-/LL	.
.	.	.	.	16cc/JJ	.
*	*	*	*	*custos:cc	*
!	!	!	!	!LO:LB:g=original	!
.	.	8A\	.	16cc\LL	.
.	.	.	.	16a\	.
.	.	8A\J	.	16cc\	.
.	.	.	.	16b-\JJ	.
!	!	!	!	!LO:TX:t=P:problem:mixed beam	!
.	.	8F\L	.	8a/L	.
.	.	16D\L	.	8aa\	.
.	.	16E\	.	.	.
!LO:TX:t=P:problem:kreska pseudotaktowa	!	!	!	!	!
4Eny\	.	16F\	.	8aa\	.
.	.	16D\	.	.	.
!	!	!	!	!LO:TX:t=P:problem:kreska pseudotaktowa	!
.	.	16F\	.	8aa\J	.
!	!	!LO:TX:t=P:problem:kreska pseudotaktowa	!	!	!
.	.	16E\JJ	.	.	.
=19-	=19-	=19-	=19-	=19-	=19-
2D/	.	8D/	.	8ffny\L	.
*	*	*custos:d	*	*	*
!	!	!LO:LB:g=original	!	!	!
*	*	*clefC4	*	*	*
.	.	8d\L	.	16dd\L	.
.	.	.	.	16ee\	.
.	.	8d\	.	16ff\	.
.	.	.	.	16dd\	.
.	.	8d\J	.	16gg\	.
.	.	.	.	16ff\JJ	.
2C#X/	.	8c#X\L	.	8ee\L	.
.	.	16A\L	.	8aa\	.
!	!	!LO:TX:t=P:problem:♯ above	!	!	!
!	!	!LO:N:acc=#	!	!	!
.	.	16Bn\	.	.	.
!	!	!LO:TX:t=P:problem:♯ above	!	!	!
.	.	16c#X\	.	8aa\	.
.	.	16d\	.	.	.
!	!	!	!	!LO:TX:t=P:problem:kreska pseudotaktowa	!
.	.	16e\	.	8ee\J	.
!	!	!LO:TX:t=P:problem:kreska pseudotaktowa	!	!	!
!	!	!LO:TX:t=P:problem:♯ above	!	!	!
.	.	16c#X\JJ	.	.	.
=20-	=20-	=20-	=20-	=20-	=20-
!LO:TX:t=P:problem:kreska pseudotaktowa	!	!	!	!	!
1D	.	4d\	.	4ff\	.
.	.	8f\L	.	8aa\L	.
.	.	8e\J	.	8gg\J	.
.	.	8d\L	.	8ff\L	.
.	.	16e\L	.	16gg\L	.
.	.	16d\JJ	.	16ff\JJ	.
.	.	8.c#\L	.	8.ee\L	.
!	!	!LO:TX:t=P:problem:kreska pseudotaktowa	!	!LO:TX:t=P:problem:kreska pseudotaktowa	!
.	.	16B\Jk	.	16dd\Jk	.
*	*	*clefF4	*	*	*
=21-	=21-	=21-	=21-	=21-	=21-
2AA/	.	2A\	.	8cc#X\L	.
.	.	.	.	8.ee\	.
.	.	.	.	16dd\L	.
!	!	!	!	!LO:TX:t=P:problem:♯ above	!
.	.	.	.	16cc#X\	.
!	!	!	!	!LO:TX:t=P:problem:♯ above	!
!	!	!	!	!LO:N:acc=#	!
.	.	.	.	16bn\JJ	.
!	!	!	!	!LO:TX:t=P:problem:kreska pseudotaktowa	!
2A\	.	8r	.	2cc#X\	.
.	.	8.A\L	.	.	.
.	.	16G\L	.	.	.
.	.	16F\	.	.	.
!	!	!LO:TX:t=P:problem:kreska pseudotaktowa	!	!	!
.	.	16E\JJ	.	.	.
=22-	=22-	=22-	=22-	=22-	=22-
2F#X\	.	2F#X\	.	8r	.
.	.	.	.	8.dd\	.
.	.	.	.	16cc#\LL	.
!	!	!	!	!LO:TX:t=P:problem:♯ above	!
!	!	!	!	!LO:N:acc=#	!
.	.	.	.	16bn\	.
.	.	.	.	16a\JJ	.
!LO:TX:t=P:problem:kreska pseudotaktowa	!	!	!	!LO:TX:t=P:problem:kreska pseudotaktowa	!
!	!	!	!	!LO:N:acc=#	!
2G\	.	8r	.	2bn/	.
.	.	8.G\L	.	.	.
.	.	16F#\L	.	.	.
.	.	16E\	.	.	.
!	!	!LO:TX:t=P:problem:kreska pseudotaktowa	!	!	!
.	.	16D\JJ	.	.	.
*custos:E	*	*	*	*	*
!LO:LB:g=original	!	!	!	!	!
=23-	=23-	=23-	=23-	=23-	=23-
1E	.	8E\	.	8r	.
*	*	*custos:e	*	*	*
!	!	!LO:LB:g=original	!	!	!
!	!	!LO:MO:mod=*null:null	!	!	!
*	*	*clefC4	*	*	*
.	.	8.e\L	.	8.gg\L	.
.	.	16d\L	.	16ff\L	.
.	.	16cny\	.	16ee\	.
!	!	!LO:TX:t=P:problem:♯ above	!	!	!
!	!	!LO:N:acc=#	!	!	!
.	.	16Bn\JJ	.	16dd\JJ	.
*	*	*	*	*custos:cc	*
!	!	!	!	!LO:LB:g=original	!
.	.	8A/L	.	8cc#X\	.
.	.	16G/L	.	4dd\	.
.	.	16Fny/JJ	.	.	.
!	!	!LO:TX:t=P:problem:kreska pseudotaktowa	!	!	!
.	.	4E/	.	.	.
!	!	!	!	!LO:TX:t=P:problem:kreska pseudotaktowa	!
.	.	.	.	8cc#X\	.
=24-	=24-	=24-	=24-	=24-	=24-
2D/	.	8D/L	.	2dd\	.
.	.	8.A/J	.	.	.
.	.	16B\LL	.	.	.
.	.	16c\	.	.	.
.	.	16A\JJ	.	.	.
!LO:TX:t=P:problem:kreska pseudotaktowa:między nutą a kropką	!	!	!	!	!
[y2D/	.	2d\	.	8r	.
.	.	.	.	8.d/L	.
.	.	.	.	16e/L	.
!	!	!	!	!LO:TX:t=P:problem:♯ above	!
.	.	.	.	16f#X/	.
!	!	!	!	!LO:TX:t=P:problem:kreska pseudotaktowa	!
.	.	.	.	16d/JJ	.
!	!	!LO:MO:mod=*null:null	!	!	!
*	*	*clefF4	*	*	*
=25-	=25-	=25-	=25-	=25-	=25-
!LO:N:xstem:cue	!	!	!	!	!
4D/]	.	8r	.	2dd\	.
.	.	8.D\L	.	.	.
4D/	.	.	.	.	.
.	.	16E\L	.	.	.
.	.	16F\	.	.	.
.	.	16D\JJ	.	.	.
2G\	.	2G\	.	8r	.
.	.	.	.	8.b-y\L	.
.	.	.	.	16ccny\L	.
.	.	.	.	16dd\	.
!	!	!	!	!LO:TX:t=P:problem:kreska pseudotaktowa	!
.	.	.	.	16b-\JJ	.
=26-	=26-	=26-	=26-	=26-	=26-
2GG/	.	8r	.	2gg\	.
.	.	8.GG/L	.	.	.
.	.	16AA/L	.	.	.
.	.	16BB-/	.	.	.
.	.	16GG/JJ	.	.	.
!LO:TX:t=P:problem:kreska pseudotaktowa	!	!LO:TX:t=P:problem:kreska pseudotaktowa	!	!	!
2Cny/	.	2C/	.	8r	.
.	.	.	.	8.cc\L	.
.	.	.	.	16dd\L	.
.	.	.	.	16ee\	.
.	.	.	.	16cc\JJ	.
=27-	=27-	=27-	=27-	=27-	=27-
!	!	!	!	!LO:TX:t=P:problem:mixed beam	!
1D	.	8r	.	8ff\L	.
.	.	8.D\L	.	16d/L	.
.	.	.	.	16e/	.
.	.	.	.	16fny/	.
.	.	16E\L	.	16g/	.
.	.	16F\	.	16a/	.
!	!	!	!	!LO:N:acc=#	!
!	!	!	!	!LO:TX:b:t=P:problem:# below	!
.	.	16D\JJ	.	16bn/JJ	.
.	.	4d\	.	16cc\LL	.
!	!	!	!	!LO:TX:t=P:problem:♯ above	!
!	!	!	!	!LO:N:acc=#	!
!	!	!	!	!LO:SIC:s=16b	!
.	.	.	.	16bn\	.
.	.	.	.	16cc\	.
!	!	!	!	!LO:TX:t=P:problem:♯ above	!
!	!	!	!	!LO:N:acc=#	!
!	!	!	!	!LO:SIC:s=16b	!
.	.	.	.	16bn\	.
!	!	!LO:TX:t=P:problem:kreska pseudotaktowa	!	!	!
.	.	4d\	.	16cc\	.
!	!	!	!	!LO:TX:t=P:problem:♯ above	!
!	!	!	!	!LO:N:acc=#	!
!	!	!	!	!LO:SIC:s=16b	!
.	.	.	.	16bn\	.
.	.	.	.	16a\	.
!	!	!	!	!LO:TX:t=P:problem:kreska pseudotaktowa	!
!	!	!	!	!LO:TX:t=P:problem:♯ above	!
!	!	!	!	!LO:N:acc=#	!
!	!	!	!	!LO:SIC:s=16bJJ	!
.	.	.	.	16bn\JJ	.
=28-	=28-	=28-	=28-	=28-	=28-
2C/	.	2c\	.	8cc\L	.
.	.	.	.	8.cc\	.
.	.	.	.	16dd\L	.
.	.	.	.	16ee\	.
.	.	.	.	16cc\JJ	.
*	*	*custos:C	*	*custos:gg	*
!LO:TX:t=P:problem:kreska pseudotaktowa	!	!LO:LB:g=original	!	!LO:LB:g=original	!
2C/	.	8r	.	4gg\	.
.	.	8.C/L	.	.	.
.	.	.	.	16cc\LL	.
.	.	16D/L	.	16dd\	.
.	.	16E/	.	16ee\	.
!	!	!LO:TX:t=P:problem:kreska pseudotaktowa	!	!LO:TX:t=P:problem:kreska pseudotaktowa	!
.	.	16C/JJ	.	16ff\JJ	.
=29-	=29-	=29-	=29-	=29-	=29-
2G\	.	2G\	.	16gg\LL	.
.	.	.	.	16cc\	.
.	.	.	.	16dd\	.
.	.	.	.	16ee\JJ	.
.	.	.	.	32ff\LLL	.
.	.	.	.	32ee\	.
.	.	.	.	32ff\	.
.	.	.	.	32ee\	.
.	.	.	.	32ff\	.
.	.	.	.	32ee\	.
.	.	.	.	32dd\	.
.	.	.	.	32ee\JJJ	.
2Fny\	.	8r	.	2ff\	.
.	.	8.F\L	.	.	.
.	.	16G\L	.	.	.
.	.	16A\	.	.	.
!	!	!LO:TX:t=P:problem:kreska pseudotaktowa	!	!	!
.	.	16F\JJ	.	.	.
=30-	=30-	=30-	=30-	=30-	=30-
!LO:TX:t=P:problem:kreska pseudotaktowa	!	!	!	!LO:TX:b:t=1.:mod=	!
1G	.	8.G\L	.	1r	.
.	.	16A\Jk	.	.	.
*	*	*clefC4	*	*	*
.	.	16B-\LL	.	.	.
.	.	16c\	.	.	.
.	.	16d\	.	.	.
.	.	16e\JJ	.	.	.
.	.	16f\LL	.	.	.
.	.	16e\	.	.	.
.	.	16f\	.	.	.
.	.	16e\	.	.	.
.	.	16f\	.	.	.
.	.	16e\	.	.	.
.	.	16d\	.	.	.
!	!	!LO:TX:t=P:problem:kreska pseudotaktowa	!	!	!
.	.	16e\JJ	.	.	.
=31-	=31-	=31-	=31-	=31-	=31-
2F\	.	2f\	.	4r	.
.	.	.	.	4a/	.
*	*	*clefF4	*	*	*
2D/	.	4r	.	8f/L	.
.	.	.	.	16e/L	.
.	.	.	.	16d/JJ	.
!	!	!LO:TX:t=P:problem:kreska pseudotaktowa	!	!	!
.	.	4D/	.	8a/L	.
.	.	.	.	16b-y/L	.
!	!	!	!	!LO:TX:t=P:problem:kreska pseudotaktowa	!
.	.	.	.	16cc/JJ	.
=32-	=32-	=32-	=32-	=32-	=32-
2BB-/	.	8BB-/L	.	2dd\	.
.	.	16AA/L	.	.	.
.	.	16GG/JJ	.	.	.
.	.	8BB-/L	.	.	.
.	.	16C/L	.	.	.
.	.	16D/JJ	.	.	.
*	*	*custos:E	*	*	*
!LO:TX:t=P:problem:kreska pseudotaktowa	!	!LO:LB:g=original	!	!	!
2C/	-	8E-X\L	.	4r	.
.	.	16F\L	.	.	.
.	.	16G\JJ	.	.	.
!	!	!	!	!LO:TX:t=P:problem:kreska pseudotaktowa	!
.	.	8C/L	.	4gg\	.
.	.	16D/L	.	.	.
!	!	!LO:TX:t=P:problem:kreska pseudotaktowa	!	!	!
!	!	!LO:TX:t=P:problem:♭ above	!	!	!
.	.	16E-X/JJ	.	.	.
=33-	=33-	=33-	=33-	=33-	=33-
2D/	.	2D/	.	8ff\L	.
.	.	.	.	16gg\L	.
.	.	.	.	16aa\JJ	.
.	.	.	.	8dd\L	.
.	.	.	.	16ee\L	.
.	.	.	.	16ff\JJ	.
2A\	.	4r	.	8cc\L	.
.	.	.	.	16dd\L	.
.	.	.	.	16ee\JJ	.
.	.	4A\	.	8a/L	.
.	.	.	.	16b-/L	.
!	!	!	!	!LO:TX:t=P:problem:kreska pseudotaktowa	!
.	.	.	.	16cc/JJ	.
*	*	*	*	*custos:dd	*
!	!	!	!	!LO:LB:g=original	!
=34-	=34-	=34-	=34-	=34-	=34-
2B-\	.	8B-\L	.	2dd\	.
.	.	16c\L	.	.	.
.	.	16d\JJ	.	.	.
.	.	8G\L	.	.	.
.	.	16A\L	.	.	.
.	.	16B-\JJ	.	.	.
!LO:TX:t=P:problem:kreska pseudotaktowa	!	!	!	!	!
2G\	.	8BB-/L	.	4r	.
.	.	16C/L	.	.	.
.	.	16D/JJ	.	.	.
.	.	8GG/L	.	4dd\	.
.	.	16AA/L	.	.	.
!	!	!LO:TX:t=P:problem:kreska pseudotaktowa	!	!	!
.	.	16BB-/JJ	.	.	.
*custos:F	*	*	*	*	*
!LO:PB:g=original	!	!	!	!	!
=35-	=35-	=35-	=35-	=35-	=35-
!	!	!	!	!LO:TX:t=P:problem:mixed beam	!
2F\	.	2FF/	.	8a/L	.
.	.	.	.	16aa\L	.
.	.	.	.	16gg\JJ	.
.	.	.	.	8ff\L	.
.	.	.	.	8dd\J	.
2.D/	.	8r	.	2aa\	.
.	.	16A\LL	.	.	.
.	.	16G\J	.	.	.
.	.	8F\	.	.	.
!	!	!LO:TX:t=P:problem:kreska pseudotaktowa	!	!	!
.	.	8D\J	.	.	.
=36-	=36-	=36-	=36-	=36-	=36-
.	.	8F\L	.	4r	.
.	.	16Eny\L	.	.	.
.	.	16D\JJ	.	.	.
4F\	.	8A\L	.	4a/	.
.	.	16G\L	.	.	.
.	.	16F\JJ	.	.	.
!LO:TX:t=P:problem:kreska pseudotaktowa	!	!	!	!	!
2C/	.	4c\	.	8ee\L	.
.	.	.	.	16dd\L	.
.	.	.	.	16cc\JJ	.
!	!	!LO:TX:t=P:problem:kreska pseudotaktowa	!	!	!
.	.	4C/	.	8gg\L	.
.	.	.	.	16ff\L	.
!	!	!	!	!LO:TX:t=P:problem:kreska pseudotaktowa	!
.	.	.	.	16ee\JJ	.
*	*	*custos:D	*	*	*
!	!	!LO:LB:g=original	!	!	!
=37-	=37-	=37-	=37-	=37-	=37-
4D/	.	8D\L	.	8ff\L	.
.	.	16E\L	.	16gg\L	.
.	.	16F\JJ	.	16aa\JJ	.
4G\	.	8G\L	.	8b-\L	.
.	.	16A\L	.	16cc\L	.
.	.	16B-\JJ	.	16dd\JJ	.
2A\	.	4A\	.	8aa\L	.
.	.	.	.	16gg\L	.
.	.	.	.	16ff\JJ	.
!	!	!LO:TX:t=P:problem:kreska pseudotaktowa	!	!	!
.	.	4AA/	.	8cc#X\L	.
.	.	.	.	16dd\L	.
!	!	!	!	!LO:TX:t=P:problem:kreska pseudotaktowa	!
.	.	.	.	16ee\JJ	.
=38-	=38-	=38-	=38-	=38-	=38-
2D/	.	2D/	.	2dd\	.
!LO:TX:t=P:problem:kreska pseudotaktowa	!	!	!	!	!
2D/	.	8r	.	2r	.
.	.	8D/L	.	.	.
.	.	8D/	.	.	.
!	!	!LO:TX:t=P:problem:kreska pseudotaktowa	!	!	!
.	.	8D/J	.	.	.
=39-	=39-	=39-	=39-	=39-	=39-
2BB-/	.	8BB-/L	.	8r	.
.	.	16AA/L	.	8dd\L	.
.	.	16GG/JJ	.	.	.
.	.	8BB-/L	.	8dd\	.
.	.	16C/L	.	8dd\J	.
.	.	16D/JJ	.	.	.
2C/	-	8E-X\L	.	4.gg\	.
.	.	16F\L	.	.	.
.	.	16G\JJ	.	.	.
.	.	8C/L	.	.	.
!	!	!	!	!LO:TX:t=P:problem:kreska pseudotaktowa	!
.	.	16D/L	.	8gg\	.
!	!	!LO:TX:t=P:problem:kreska pseudotaktowa	!	!	!
!	!	!LO:TX:b:t=P:problem:- below	!	!	!
.	.	16E-X/JJ	.	.	.
*	*	*	*	*custos:ff	*
!	!	!	!	!LO:LB:g=original	!
=40-	=40-	=40-	=40-	=40-	=40-
2D/	.	2D/	.	8ff\L	.
.	.	.	.	16dd\L	.
.	.	.	.	16ee\J	.
.	.	.	.	8ff\	.
.	.	.	.	8gg\J	.
!LO:TX:t=P:problem:kreska pseudotaktowa:między nutą a kropką	!	!	!	!	!
[y2D/	.	8r	.	4aa\	.
.	.	16D\LL	.	.	.
.	.	16Eny\J	.	.	.
!	!	!	!	!LO:TX:t=P:problem:kreska pseudotaktowa	!
.	.	8F\	.	4r	.
!	!	!LO:TX:t=P:problem:kreska pseudotaktowa	!	!	!
.	.	8G\J	.	.	.
=41-	=41-	=41-	=41-	=41-	=41-
!LO:N:xstem:cue	!	!	!	!	!
4D/]	.	4D/	.	16ff\LL	.
.	.	.	.	16gg\J	.
.	.	.	.	8aa\J	.
4D/	.	16F\LL	.	4r	.
.	.	16G\J	.	.	.
.	.	8A\J	.	.	.
*	*	*custos:E	*	*	*
!	!	!LO:LB:g=original	!	!	!
2C/	.	4r	.	16ee\LL	.
.	.	.	.	16ff\J	.
.	.	.	.	8gg\J	.
!	!	!	!	!LO:TX:t=P:problem:kreska pseudotaktowa	!
.	.	16E\LL	.	4r	.
.	.	16F\J	.	.	.
!	!	!LO:TX:t=P:problem:kreska pseudotaktowa	!	!	!
.	.	8G\J	.	.	.
=42-	=42-	=42-	=42-	=42-	=42-
4BB-/	.	4r	.	16b-\LL	.
.	.	.	.	16ccny\J	.
.	.	.	.	8dd\J	.
4C/	.	16A\LL	.	4r	.
.	.	16B-\J	.	.	.
.	.	8c\J	.	.	.
!LO:TX:t=P:problem:kreska pseudotaktowa	!	!	!	!	!
2AA/	.	4r	.	32a/LLL	.
.	.	.	.	32b-/	.
.	.	.	.	32cc/	.
.	.	.	.	32dd/JJJ	.
.	.	.	.	8cc\	.
!	!	!	!	!LO:TX:t=P:problem:kreska pseudotaktowa	!
.	.	32A\LLL	.	4r	.
.	.	32B-\	.	.	.
.	.	32c\	.	.	.
.	.	32d\JJ	.	.	.
!	!	!LO:TX:t=P:problem:kreska pseudotaktowa	!	!	!
.	.	8c\J	.	.	.
=43-	=43-	=43-	=43-	=43-	=43-
2GG/	.	4r	.	16gg\LL	.
.	.	.	.	16aa\J	.
.	.	.	.	8bb-\J	.
.	.	16G\LL	.	4r	.
.	.	16A\J	.	.	.
.	.	8B-\J	.	.	.
2G\	.	4r	.	32bb-\LLL	.
.	.	.	.	32aa\	.
.	.	.	.	32gg\	.
!	!	!	!	!LO:TX:t=P:problem:# above	!
.	.	.	.	32ff#X\JJJ	.
.	.	.	.	8gg\	.
!	!	!	!	!LO:TX:t=P:problem:kreska pseudotaktowa	!
.	.	32B-\LLL	.	4r	.
.	.	32A\	.	.	.
.	.	32G\	.	.	.
!	!	!LO:TX:t=P:problem:# above	!	!	!
.	.	32F#X\JJ	.	.	.
!	!	!LO:TX:t=P:problem:kreska pseudotaktowa	!	!	!
.	.	8G\J	.	.	.
=44-	=44-	=44-	=44-	=44-	=44-
2F\	.	4r	.	32aa\LLL	.
.	.	.	.	32gg\	.
.	.	.	.	32ffny\	.
.	.	.	.	32ee\JJJ	.
.	.	.	.	8ff\	.
.	.	32A\LLL	.	4r	.
.	.	32G\	.	.	.
.	.	32Fny\	.	.	.
.	.	32E\JJ	.	.	.
.	.	8F\J	.	.	.
*	*	*	*	*custos:ee	*
!LO:TX:t=P:problem:kreska pseudotaktowa	!	!	!	!LO:LB:g=original	!
2E\	.	4r	.	32ee\LLL	.
.	.	.	.	32ff\	.
.	.	.	.	32gg\	.
.	.	.	.	32aa\JJJ	.
.	.	.	.	8gg\	.
!	!	!	!	!LO:TX:t=P:problem:kreska pseudotaktowa	!
.	.	32E\LLL	.	4r	.
.	.	32F\	.	.	.
.	.	32G\	.	.	.
.	.	32A\JJ	.	.	.
!	!	!LO:TX:t=P:problem:kreska pseudotaktowa	!	!	!
.	.	8G\J	.	.	.
*	*	*custos:D	*	*	*
!	!	!LO:LB:g=original	!	!	!
=45-	=45-	=45-	=45-	=45-	=45-
2.D/	.	4r	.	32dd\LLL	.
.	.	.	.	32ee\	.
.	.	.	.	32ff\	.
.	.	.	.	32gg\JJJ	.
.	.	.	.	8ff\	.
.	.	32D\LLL	.	4r	.
.	.	32E\	.	.	.
.	.	32F\	.	.	.
.	.	32G\JJ	.	.	.
.	.	8F\J	.	.	.
.	.	4r	.	32dd\LLL	.
.	.	.	.	32ee\	.
.	.	.	.	32ff\	.
.	.	.	.	32gg\JJJ	.
.	.	.	.	8ff\	.
!	!	!	!	!LO:TX:t=P:problem:kreska pseudotaktowa	!
4C/	.	32D\LLL	.	4r	.
.	.	32E\	.	.	.
.	.	32F\	.	.	.
.	.	32G\JJ	.	.	.
!	!	!LO:TX:t=P:problem:kreska pseudotaktowa	!	!	!
.	.	8F\J	.	.	.
=46-	=46-	=46-	=46-	=46-	=46-
2BB-/	.	4r	.	32b-\LLL	.
.	.	.	.	32cc\	.
.	.	.	.	32dd\	.
!	!	!	!	!LO:TX:t=P:problem:♭ above	!
.	.	.	.	32ee-X\JJJ	.
.	.	.	.	8dd\	.
.	.	32BB-/LLL	.	4r	.
.	.	32C/	.	.	.
.	.	32D/	.	.	.
!	!	!LO:TX:t=P:problem:bemol przed całą grupą	!	!	!
.	.	32E-X/JJ	.	.	.
.	.	8D/J	.	.	.
!LO:TX:t=P:problem:kreska pseudotaktowa	!	!	!	!	!
2AA/	.	4r	.	32a\LLL	.
.	.	.	.	32b-\	.
.	.	.	.	32cc\	.
.	.	.	.	32dd\JJJ	.
.	.	.	.	8cc\	.
!	!	!	!	!LO:TX:t=P:problem:kreska pseudotaktowa	!
.	.	32A\LLL	.	4r	.
.	.	32B-\	.	.	.
.	.	32c\	.	.	.
.	.	32d\JJ	.	.	.
!	!	!LO:TX:t=P:problem:kreska pseudotaktowa	!	!	!
.	.	8c\J	.	.	.
*custos:GG	*	*	*	*	*
!LO:LB:g=original	!	!	!	!	!
=47-	=47-	=47-	=47-	=47-	=47-
2GG/	.	4r	.	32bb-\LLL	.
.	.	.	.	32aa\	.
.	.	.	.	32gg\	.
.	.	.	.	32ff\JJJ	.
.	.	.	.	8gg\	.
.	.	32B-\LLL	.	4r	.
.	.	32A\	.	.	.
.	.	32G\	.	.	.
.	.	32F\JJ	.	.	.
.	.	8G\J	.	.	.
2D/	.	4r	.	32aa\LLL	.
.	.	.	.	32gg\	.
.	.	.	.	32ff\	.
.	.	.	.	32eeny\JJJ	.
.	.	.	.	8ff\	.
!	!	!	!	!LO:TX:t=P:problem:kreska pseudotaktowa	!
.	.	32A\LLL	.	4r	.
.	.	32G\	.	.	.
!	!	!LO:TX:t=P:problem:# above	!	!	!
.	.	32F#X\	.	.	.
.	.	32Eny\JJ	.	.	.
!	!	!LO:TX:t=P:problem:kreska pseudotaktowa	!	!	!
!	!	!LO:TX:t=P:problem:# above	!	!	!
.	.	8F#X\J	.	.	.
*	*	*	*	*custos:gg	*
!	!	!	!	!LO:LB:g=original	!
=48-	=48-	=48-	=48-	=48-	=48-
!LO:TX:t=P:problem:kreska pseudotaktowa	!	!	!	!	!
1GG	.	8.G\L	.	8.gg\L	.
.	.	16F#\Jk	.	16aa\Jk	.
.	.	8.G\L	.	8.bb-\L	.
.	.	16A\Jk	.	16aa\Jk	.
*	*	*custos:B	*	*	*
!	!	!LO:LB:g=original	!	!	!
.	.	8.B-\L	.	8.gg\L	.
.	.	16A\Jk	.	16ff\Jk	.
!	!	!LO:TX:t=P:problem:mixed beam	!	!	!
.	.	8.G\L	.	8.ee\L	.
!	!	!LO:TX:t=P:problem:kreska pseudotaktowa	!	!LO:TX:t=P:problem:kreska pseudotaktowa	!
.	.	16BB-/Jk	.	16dd\Jk	.
=49-	=49-	=49-	=49-	=49-	=49-
!LO:TX:t=P:problem:korekta wysokości	!LO:SIC:s=8.AAL	!	!	!	!
2AA/	.	8.AA/	.	8.cc\L	.
!	!	!LO:SIC:s=16GGJ	!	!	!
.	.	16GG/	.	16b-\Jk	.
!	!	!LO:SIC:s=8.AA	!	!	!
.	.	8.AA/	.	8.a/L	.
!	!	!LO:SIC:s=16BB-J	!	!	!
.	.	16BB-/	.	16g/Jk	.
!	!	!LO:TX:t=P:problem:kreska pseudotaktowa	!	!LO:TX:t=P:problem:kreska pseudotaktowa	!
2A\	.	2AA/	.	2a/	.
=50-	=50-	=50-	=50-	=50-	=50-
2G\	.	1r	.	2r	.
!LO:TX:t=P:problem:kreska pseudotaktowa	!	!	!	!	!
2F#X\	.	.	.	4r	.
!	!	!	!	!LO:TX:t=P:problem:kreska pseudotaktowa	!
.	.	.	.	4aa\	.
=51-	=51-	=51-	=51-	=51-	=51-
!	!	!	!	!LO:SIC:s=8bb-L	!
2G\	.	2r	.	8bb-\	.
!	!	!	!	!LO:SIC:s=16bb-L	!
.	.	.	.	16bb-\LL	.
.	.	.	.	16aa\	.
.	.	.	.	16bb-\	.
.	.	.	.	16aa\	.
.	.	.	.	16bb-\	.
.	.	.	.	16gg\JJ	.
!	!	!	!	!LO:SIC:s=8aaL	!
2D/	.	4r	.	8aa\	.
!	!	!	!	!LO:SIC:s=16aaL	!
.	.	.	.	16aa\LL	.
.	.	.	.	16gg\	.
!	!	!LO:TX:t=P:problem:kreska pseudotaktowa	!	!	!
.	.	4A\	.	16aa\	.
.	.	.	.	16gg\	.
.	.	.	.	16aa\	.
.	.	.	.	16ff#X,\JJ	.
=52-	=52-	=52-	=52-	=52-	=52-
2G\	.	8B-\L	.	2gg\	.
.	.	16B-\L	.	.	.
.	.	16A\	.	.	.
.	.	16B-\	.	.	.
.	.	16A\	.	.	.
.	.	16B-\	.	.	.
.	.	16G\JJ	.	.	.
!LO:TX:t=P:problem:kreska pseudotaktowa	!	!	!	!	!
2D/	.	8A\L	.	4r	.
.	.	16A\L	.	.	.
.	.	16G\	.	.	.
.	.	16A\	.	4a/	.
.	.	16G\	.	.	.
.	.	16A\	.	.	.
.	.	16F#X\JJ	.	.	.
=53-	=53-	=53-	=53-	=53-	=53-
1GG	.	2G\	.	8b-/L	.
.	.	.	.	16b-/L	.
.	.	.	.	16a/JJ	.
.	.	.	.	8b-/L	.
.	.	.	.	8cc/J	.
*	*	*	*	*custos:dd	*
!	!	!	!	!LO:LB:g=original	!
!	!	!	!	!LO:TX:t=P:problem:kreska pseudotaktowa	!
.	.	8r	.	2dd\	.
.	.	16BB-/LL	.	.	.
.	.	16AA/J	.	.	.
.	.	8BB-/	.	.	.
!	!	!LO:TX:t=P:problem:kreska pseudotaktowa	!	!	!
.	.	8C/J	.	.	.
*	*	*custos:D	*	*	*
!	!	!LO:LB:g=original	!	!	!
=54-	=54-	=54-	=54-	=54-	=54-
!LO:TX:t=P:problem:kreska pseudotaktowa	!	!	!	!	!
1D	.	8D/L	.	8r	.
.	.	16D/L	.	16ffny\LL	.
.	.	16C/JJ	.	16ee\J	.
.	.	8D/L	.	8ff\	.
.	.	8E/J	.	8gg\J	.
.	.	8Fny\L	.	2aa\	.
.	.	16F\L	.	.	.
.	.	16G\J	.	.	.
.	.	8A\	.	.	.
!	!	!LO:TX:t=P:problem:kreska pseudotaktowa	!	!	!
.	.	8F\J	.	.	.
=55-	=55-	=55-	=55-	=55-	=55-
!	!	!LO:TX:t=P:problem:mixed beam	!	!	!
1BB-	.	8B-\L	.	8r	.
.	.	16BB-/L	.	16dd\LL	.
.	.	16AA/J	.	16cc\J	.
.	.	8BB-/	.	8dd\	.
.	.	8C/J	.	8ee\J	.
.	.	8D/L	.	8ff\L	.
.	.	16D/L	.	16ff\L	.
.	.	16C/J	.	16ee\J	.
.	.	8D/	.	8ff\	.
!	!	!LO:TX:t=P:problem:kreska pseudotaktowa	!	!LO:TX:t=P:problem:kreska pseudotaktowa	!
.	.	8E/J	.	8gg\J	.
=56-	=56-	=56-	=56-	=56-	=56-
!LO:TX:t=P:problem:kreska pseudotaktowa	!	!	!	!LO:TX:t=P:problem:mixed beam	!
1Fny	.	8F\L	.	8aa\L	.
.	.	16F\L	.	16a/L	.
.	.	16E\J	.	16g/JJ	.
.	.	8F\	.	8a/L	.
.	.	8G\J	.	8b-/J	.
.	.	8A\	.	8cc\L	.
.	.	4B-\	.	8dd\J	.
!	!	!	!	!LO:TX:t=P:problem:kreska pseudotaktowa	!
.	.	.	.	4cc\	.
!	!	!LO:TX:t=P:problem:kreska pseudotaktowa	!	!	!
.	.	8A\	.	.	.
=57-	=57-	=57-	=57-	=57-	=57-
1BB-	.	4B-\	.	4b-/	.
.	.	4D/	.	4ff\	.
.	.	4D/	.	4ff\	.
!	!	!LO:TX:t=P:problem:kreska pseudotaktowa	!	!LO:TX:t=P:problem:♭ above	!
.	.	4C/	.	4ee-X\	.
=58-	=58-	=58-	=58-	=58-	=58-
!	!	!LO:TX:t=P:problem:mixed beam	!	!	!
2BB-/	.	8BB-/L	.	2dd\	.
.	.	8d\	.	.	.
.	.	8d\	.	.	.
.	.	8c\J	.	.	.
!LO:TX:t=P:problem:kreska pseudotaktowa	!	!	!	!	!
2BB-/	.	8B-\L	.	8r	.
.	.	8G\	.	8dd\L	.
.	.	8B-\	.	8dd\	.
!	!	!	!	!LO:TX:t=P:problem:kreska pseudotaktowa	!
.	.	8A\J	.	8cc\J	.
*	*	*custos:G	*	*custos:b	*
!	!	!LO:PB:g=original	!	!LO:LB:g=original	!
=59-	=59-	=59-	=59-	=59-	=59-
2GG/	.	8G\L	.	8b-\L	.
.	.	8B-\	.	8dd\	.
.	.	8B-\	.	8dd\	.
.	.	8G\J	.	8b-\J	.
2AA/	.	8.A\L	.	8.cc\L	.
.	.	16G\Jk	.	16b-\Jk	.
.	.	16F\LL	.	16a/LL	.
.	.	16E\	.	16g/	.
.	.	16D\	.	16f/	.
!	!	!LO:TX:t=P:problem:kreska pseudotaktowa	!	!LO:TX:t=P:problem:kreska pseudotaktowa	!
.	.	16C\JJ	.	16e/JJ	.
=60-	=60-	=60-	=60-	=60-	=60-
!LO:TX:t=P:problem:kreska pseudotaktowa	!	!	!	!	!
1BB-	.	16BB-/LL	.	2d/	.
.	.	16C/	.	.	.
.	.	16D/	.	.	.
.	.	16E/JJ	.	.	.
.	.	16F\LL	.	.	.
.	.	16G\	.	.	.
.	.	16A\	.	.	.
.	.	16F\JJ	.	.	.
!	!	!LO:TX:t=P:problem:kreska pseudotaktowa	!	!	!
.	.	2B-\	.	2r	.
=61-	=61-	=61-	=61-	=61-	=61-
2BB-/	.	2r	.	16d/LL	.
.	.	.	.	16e/	.
.	.	.	.	16f/	.
.	.	.	.	16g/	.
.	.	.	.	16a/	.
.	.	.	.	16b-/	.
.	.	.	.	16cc/	.
.	.	.	.	16a/JJ	.
!	!	!	!	!LO:TX:t=P:problem:kreska pseudotaktowa	!
2BB-/	.	4r	.	2b-/	.
.	.	4BB-/	.	.	.
=62-	=62-	=62-	=62-	=62-	=62-
2C/	.	2C/	.	2r	.
2D/	.	2D/	.	4r	.
.	.	.	.	4ff\	.
*custos:E	*	*	*	*	*
!LO:LB:g=original	!	!	!	!	!
=63-	=63-	=63-	=63-	=63-	=63-
1E-X	.	4.E-X\	.	2gg\	.
.	.	8D/	.	.	.
.	.	8E-X\L	.	2gg\	.
.	.	8D\	.	.	.
.	.	8E-\	.	.	.
.	.	8F\J	.	.	.
=64-	=64-	=64-	=64-	=64-	=64-
!LO:TX:t=P:problem:kreska pseudotaktowa	!	!	!	!	!
1D	.	2D/	.	4.ff\	.
.	.	.	.	8eeny\	.
.	.	2DD/	.	8ff\L	.
.	.	.	.	8ee\	.
.	.	.	.	8ff\	.
!	!	!	!	!LO:TX:t=P:problem:kreska pseudotaktowa	!
.	.	.	.	8gg\J	.
=65-	=65-	=65-	=65-	=65-	=65-
!	!	!	!	!LO:TX:t=P:problem:mixed beam	!
2D/	.	0r	.	8aa\L	.
.	.	.	.	8a/	.
.	.	.	.	8a/	.
.	.	.	.	8a/J	.
*	*	*	*	*custos:d	*
!	!	!	!	!LO:LB:g=original	!
4D/	.	.	.	16d/LL	.
.	.	.	.	16e/	.
.	.	.	.	16f/	.
.	.	.	.	16g/	.
4D/	.	.	.	16a/	.
.	.	.	.	16b-/	.
.	.	.	.	16cc/	.
!	!	!	!	!LO:TX:t=P:problem:kreska pseudotaktowa	!
.	.	.	.	16a/JJ	.
=66-	=66-	=66-	=66-	=66-	=66-
2G\	.	.	.	8b-\L	.
.	.	.	.	16dd\L	.
.	.	.	.	16cc\JJ	.
.	.	.	.	8.b-/L	.
.	.	.	.	16a/Jk	.
!LO:TX:t=P:problem:kreska pseudotaktowa	!	!	!	!	!
2C/	.	.	.	16g/LL	.
.	.	.	.	16d/	.
.	.	.	.	16e/	.
.	.	.	.	16f/	.
.	.	.	.	16g/	.
.	.	.	.	16a/	.
.	.	.	.	16b-/	.
!	!	!	!	!LO:TX:t=P:problem:kreska pseudotaktowa	!
.	.	.	.	16g/JJ	.
*	*	*clefC4	*	*	*
=67-	=67-	=67-	=67-	=67-	=67-
!	!	!LO:TX:t=P:problem:klucz ze znakiem przykluczowym	!	!	!
2F\	.	8r	.	16a/LL	.
.	.	.	.	16b-/	.
.	.	8A/L	.	16cc/	.
.	.	.	.	16dd/JJ	.
.	.	8A/	.	16ee\LL	.
.	.	.	.	16ff\	.
.	.	8A/J	.	16gg\	.
.	.	.	.	16ee\JJ	.
*	*	*custos:D	*	*	*
!	!	!LO:LB:g=original	!	!	!
2D/	.	16D/LL	.	4ff\	.
.	.	16Eny/	.	.	.
.	.	16F/	.	.	.
.	.	16G/JJ	.	.	.
!	!	!	!	!LO:TX:t=P:problem:kreska pseudotaktowa	!
.	.	16A\LL	.	4ee\	.
.	.	16B-\	.	.	.
.	.	16c\	.	.	.
!	!	!LO:TX:t=P:problem:kreska pseudotaktowa	!	!	!
.	.	16A\JJ	.	.	.
=68-	=68-	=68-	=68-	=68-	=68-
!LO:TX:t=P:problem:kreska pseudotaktowa	!	!	!	!	!
1G	.	8B-\L	.	2dd\	.
.	.	16d\L	.	.	.
.	.	16c\J	.	.	.
.	.	8.B-\	.	.	.
.	.	16A\Jk	.	.	.
!	!	!	!	!LO:TX:a:t=1/2	!
.	.	16G/LL	.	2r	.
.	.	16D/	.	.	.
.	.	16E/	.	.	.
!	!	!LO:TX:t=P:problem:# above	!	!	!
.	.	16F#X/JJ	.	.	.
.	.	16G/LL	.	.	.
.	.	16A/	.	.	.
.	.	16B-/	.	.	.
!	!	!LO:TX:t=P:problem:kreska pseudotaktowa	!	!	!
.	.	16G/JJ	.	.	.
=69-	=69-	=69-	=69-	=69-	=69-
2F\	.	16A\LL	.	2r	.
.	.	16B-\	.	.	.
.	.	16c\	.	.	.
.	.	16d\JJ	.	.	.
.	.	16e\LL	.	.	.
.	.	16f\	.	.	.
.	.	16g\	.	.	.
.	.	16e\JJ	.	.	.
2F\	.	4f\	.	16a/LL	.
.	.	.	.	16b-/	.
.	.	.	.	16cc/	.
.	.	.	.	16dd/JJ	.
!	!	!LO:TX:t=P:problem:kreska pseudotaktowa	!	!	!
.	.	4r	.	16ee\LL	.
.	.	.	.	16ff\	.
.	.	.	.	16gg\	.
!	!	!	!	!LO:TX:t=P:problem:kreska pseudotaktowa	!
.	.	.	.	16aa\JJ	.
*	*	*	*	*custos:gg	*
!	!	!	!	!LO:PB:g=original	!
=70-	=70-	=70-	=70-	=70-	=70-
2G\	.	4.e\	.	4.gg\	.
.	.	8d\	.	8ff\	.
!LO:TX:t=P:problem:kreska pseudotaktowa	!	!	!	!	!
2B-\	.	1d	.	4ff\	.
.	.	.	.	8ee\L	.
.	.	.	.	8dd\J	.
=71-	=71-	=71-	=71-	=71-	=71-
1A	.	.	.	2ee\	.
!	!	!LO:TX:t=P:problem:kreska pseudotaktowa	!	!	!
.	.	2c#X\	.	2ee\	.
=72-	=72-	=72-	=72-	=72-	=72-
2D/	.	8d\	.	2dd\	.
*	*	*custos:D	*	*	*
!	!	!LO:LB:g=original	!	!	!
*	*	*clefF4	*	*	*
.	.	8D/L	.	.	.
.	.	8D/	.	.	.
.	.	8D/J	.	.	.
4D/	.	16GG/LL	.	2r	.
.	.	16AA/	.	.	.
.	.	16BB-/	.	.	.
.	.	16C/JJ	.	.	.
!LO:TX:t=P:problem:kreska pseudotaktowa	!	!	!	!	!
4D/	.	16D\LL	.	.	.
.	.	16E\	.	.	.
.	.	16Fny\	.	.	.
!	!	!LO:TX:t=P:problem:kreska pseudotaktowa	!	!	!
.	.	16D\JJ	.	.	.
=73-	=73-	=73-	=73-	=73-	=73-
2E-X\	.	8E-X\L	.	1r	.
.	.	16G\L	.	.	.
.	.	16F\JJ	.	.	.
.	.	8.E-X\L	.	.	.
.	.	16D\Jk	.	.	.
2C/	.	16C/LL	.	.	.
.	.	16GG/	.	.	.
.	.	16AA/	.	.	.
!	!	!LO:TX:t=P:problem:# above	!	!	!
!	!	!LO:N:acc=#	!	!	!
.	.	16BBn/JJ	.	.	.
.	.	16C/LL	.	.	.
.	.	16D/	.	.	.
!	!	!LO:TX:t=P:problem:♭ above	!	!	!
.	.	16E-X/	.	.	.
!	!	!LO:TX:t=P:problem:kreska pseudotaktowa	!	!	!
.	.	16C/JJ	.	.	.
=74-	=74-	=74-	=74-	=74-	=74-
2D/	.	16D\LL	.	2r	.
.	.	16E-\	.	.	.
.	.	16F\	.	.	.
.	.	16G\	.	.	.
.	.	16A\	.	.	.
.	.	16B-\	.	.	.
.	.	16cny\	.	.	.
.	.	16A\JJ	.	.	.
!LO:TX:t=P:problem:kreska pseudotaktowa	!	!	!	!	!
2BB-/	.	4B-\	.	16b-\LL	.
.	.	.	.	16cc\	.
.	.	.	.	16dd\	.
.	.	.	.	16ee\	.
!	!	!LO:TX:t=P:problem:kreska pseudotaktowa	!	!	!
.	.	4d\	.	16ff\	.
.	.	.	.	16gg\	.
.	.	.	.	16aa\	.
.	.	.	.	16bb-\JJ	.
*custos:C	*	*	*	*	*
!LO:LB:g=original	!	!	!	!	!
=75-	=75-	=75-	=75-	=75-	=75-
2C/	.	4.c\	.	4.aa\	.
.	.	8B-\	.	8gg\	.
2E-X\	.	4B-\	.	8gg\L	.
.	.	.	.	16aa\L	.
.	.	.	.	16gg\JJ	.
.	.	8A\L	.	8ff\L	.
!	!	!	!	!LO:TX:t=P:problem:kreska pseudotaktowa	!
!	!	!	!	!LO:TX:t=P:problem:♭ above	!
.	.	8G\J	.	8ee-X\J	.
*	*	*custos:A	*	*	*
!	!	!LO:LB:g=original	!	!	!
=76-	=76-	=76-	=76-	=76-	=76-
!LO:TX:t=P:problem:kreska pseudotaktowa	!	!	!	!	!
1D	.	2A\	.	8ff#X\L	.
.	.	.	.	8aa\	.
.	.	.	.	8aa\	.
.	.	.	.	8aa\J	.
*	*	*	*	*custos:b	*
!	!	!	!	!LO:LB:g=original	!
.	.	2A\	.	16b-\LL	.
.	.	.	.	16cc\	.
.	.	.	.	16dd\	.
!	!	!	!	!LO:SIC:v:s=16ee	!
.	.	.	.	16ee-\	.
!	!	!	!	!LO:TX:t=P:problem:# above	!
.	.	.	.	16ff#X\	.
.	.	.	.	16gg\	.
.	.	.	.	16aa\	.
!	!	!	!	!LO:TX:t=P:problem:kreska pseudotaktowa	!
!	!	!	!	!LO:TX:t=P:problem:# above	!
.	.	.	.	16ff#X\JJ	.
=77-	=77-	=77-	=77-	=77-	=77-
2GG/	.	1G	.	8gg\L	.
.	.	.	.	16bb-\L	.
.	.	.	.	16aa\JJ	.
.	.	.	.	8.gg\L	.
.	.	.	.	16ffny\Jk	.
4G\	.	.	.	16gg\LL	.
.	.	.	.	16ff\	.
.	.	.	.	16eeny\	.
.	.	.	.	16ff\	.
4B-\	.	.	.	16gg\	.
.	.	.	.	16aa\	.
.	.	.	.	16bb-\	.
!	!	!	!	!LO:TX:t=P:problem:kreska pseudotaktowa	!
.	.	.	.	16gg\JJ	.
=78-	=78-	=78-	=78-	=78-	=78-
!	!	!	!	!LO:TX:t=P:problem:mixed beam	!
2A\	.	8r	.	16aa\LL	.
.	.	.	.	16a/	.
.	.	8A\L	.	16cc/	.
.	.	.	.	16dd/JJ	.
.	.	8A\	.	16ee\LL	.
.	.	.	.	16ff\	.
.	.	8A\J	.	16gg\	.
.	.	.	.	16ee\JJ	.
4A\	.	16D\LL	.	4ff\	.
.	.	16Eny\	.	.	.
.	.	16F\	.	.	.
.	.	16G\JJ	.	.	.
!LO:TX:t=P:problem:kreska pseudotaktowa	!	!	!	!	!
4A\	.	16A\LL	.	4ee,\	.
.	.	16B-\	.	.	.
.	.	16c\	.	.	.
!	!	!LO:TX:t=P:problem:kreska pseudotaktowa	!	!	!
.	.	16A\JJ	.	.	.
=79-	=79-	=79-	=79-	=79-	=79-
2B-\	.	8B-\L	.	2dd\	.
.	.	16d\L	.	.	.
.	.	16c\JJ	.	.	.
.	.	8.B-\L	.	.	.
.	.	16A\Jk	.	.	.
!	!	!	!	!LO:TX:a:t=1/2:mod=	!
2G\	.	16G\LL	.	2r	.
.	.	16D\	.	.	.
.	.	16E\	.	.	.
!	!	!LO:TX:t=P:problem:# above	!	!	!
.	.	16F#X\JJ	.	.	.
.	.	16G\LL	.	.	.
.	.	16A\	.	.	.
.	.	16B-\	.	.	.
!	!	!LO:TX:t=P:problem:kreska pseudotaktowa	!	!	!
.	.	16G\JJ	.	.	.
*	*	*	*	*custos:a	*
!	!	!	!	!LO:LB:g=original	!
=80-	=80-	=80-	=80-	=80-	=80-
!	!	!LO:TX:t=P:problem:mixed beam	!	!	!
4A\	.	8A\L	.	16a/LL	.
.	.	.	.	16b-/	.
.	.	8AA/	.	16cc/	.
.	.	.	.	16dd/JJ	.
4AA/	.	8AA/	.	16ee\LL	.
.	.	.	.	16ff\	.
.	.	8AA/J	.	16gg\	.
.	.	.	.	16ee\JJ	.
4AA/	.	16DD/LL	.	4ff\	.
.	.	16EE/	.	.	.
.	.	16FF/	.	.	.
.	.	16GG/	.	.	.
!LO:TX:t=P:problem:kreska pseudotaktowa	!	!	!	!	!
4AA/	.	16AA/	.	4ee\	.
.	.	16BB-y/	.	.	.
.	.	16C/	.	.	.
!	!	!LO:TX:t=P:problem:kreska pseudotaktowa	!	!	!
.	.	16AA/JJ	.	.	.
*	*	*custos:BB	*	*	*
!	!	!LO:LB:g=original	!	!	!
=81-	=81-	=81-	=81-	=81-	=81-
2BB-/	.	8BB-/L	.	2dd\	.
.	.	16D/L	.	.	.
.	.	16C/JJ	.	.	.
.	.	8.BB-/	.	.	.
.	.	16AA/	.	.	.
2GG/	.	16GG/LL	.	2r	.
.	.	16DD/	.	.	.
.	.	16EE/	.	.	.
!	!	!LO:TX:t=P:problem:# above	!	!	!
.	.	16FF#X/JJ	.	.	.
.	.	16GG/LL	.	.	.
.	.	16AA/	.	.	.
.	.	16BB-/	.	.	.
!	!	!LO:TX:t=P:problem:kreska pseudotaktowa	!	!	!
.	.	16GG/JJ	.	.	.
=82-	=82-	=82-	=82-	=82-	=82-
2AA/	.	16AA/LL	.	2r	.
.	.	16BB-/	.	.	.
.	.	16C/	.	.	.
.	.	16D/JJ	.	.	.
.	.	16E\LL	.	.	.
.	.	16Fny\	.	.	.
.	.	16G\	.	.	.
.	.	16E\JJ	.	.	.
!LO:TX:t=P:problem:kreska pseudotaktowa	!	!	!	!	!
2FF/	.	4F\	.	16a/LL	.
.	.	.	.	16b-/	.
.	.	.	.	16cc/	.
.	.	.	.	16dd/JJ	.
!	!	!LO:TX:t=P:problem:kreska pseudotaktowa	!	!	!
.	.	4r	.	16ee\LL	.
.	.	.	.	16ff\	.
.	.	.	.	16gg\	.
!	!	!	!	!LO:TX:t=P:problem:kreska pseudotaktowa	!
.	.	.	.	16aa\JJ	.
=83-	=83-	=83-	=83-	=83-	=83-
2GG/	.	4.E\	.	4.gg\	.
.	.	8D/	.	8ff\	.
2BB-/	.	1D	.	4ff\	.
.	.	.	.	8ee\L	.
.	.	.	.	8dd\J	.
=84-	=84-	=84-	=84-	=84-	=84-
!LO:TX:t=P:problem:kreska pseudotaktowa	!	!	!	!	!
1AA	.	.	.	2ee\	.
.	.	2C#X/	.	2ee\	.
=85-	=85-	=85-	=85-	=85-	=85-
!	!	!	!	!LO:TX:t=P:problem:mixed beam	!
1DD	.	1D	.	8dd\L	.
.	.	.	.	8a/	.
.	.	.	.	8a/	.
.	.	.	.	8a/J	.
*	*	*	*	*custos:d	*
!	!	!	!	!LO:LB:g=original	!
.	.	.	.	16d/LL	.
.	.	.	.	16e/	.
.	.	.	.	16f/	.
.	.	.	.	16g/	.
.	.	.	.	16a/	.
.	.	.	.	16b-/	.
.	.	.	.	16cc/	.
!	!	!	!	!LO:TX:t=P:problem:kreska pseudotaktowa	!
.	.	.	.	16a/JJ	.
=86-	=86-	=86-	=86-	=86-	=86-
!LO:TX:t=P:problem:kreska pseudotaktowa	!	!	!	!	!
1GG	.	1r	.	8b-\L	.
.	.	.	.	16dd\L	.
.	.	.	.	16cc\JJ	.
.	.	.	.	8.b-/L	.
.	.	.	.	16a/Jk	.
.	.	.	.	16g/LL	.
.	.	.	.	16d/	.
.	.	.	.	16e/	.
!	!	!	!	!LO:TX:t=P:problem:# above	!
.	.	.	.	16f#X/	.
.	.	.	.	16g/	.
.	.	.	.	16a/	.
.	.	.	.	16b-/	.
!	!	!	!	!LO:TX:t=P:problem:kreska pseudotaktowa	!
.	.	.	.	16g/JJ	.
*custos:D	*	*	*	*	*
!LO:LB:g=original	!	!	!	!	!
=87-	=87-	=87-	=87-	=87-	=87-
1D	.	16D\LL	.	2a/	.
.	.	16E\	.	.	.
.	.	16F\	.	.	.
.	.	16G\JJ	.	.	.
.	.	16A\LL	.	.	.
.	.	16B-\	.	.	.
.	.	16c\	.	.	.
.	.	16A\JJ	.	.	.
!	!	!LO:TX:t=P:problem:kreska pseudotaktowa	!	!	!
.	.	2d\	.	16d/LL	.
.	.	.	.	16e/	.
.	.	.	.	16fny/	.
.	.	.	.	16g/	.
.	.	.	.	16a/	.
.	.	.	.	16b-/	.
.	.	.	.	16cc/	.
!	!	!	!	!LO:TX:t=P:problem:kreska pseudotaktowa	!
.	.	.	.	16a/JJ	.
*	*	*custos:BB	*	*	*
!	!	!LO:LB:g=original	!	!	!
=88-	=88-	=88-	=88-	=88-	=88-
2BB-/	.	16BB-/LL	.	2dd\	.
.	.	16Cny/	.	.	.
.	.	16D/	.	.	.
.	.	16E/JJ	.	.	.
.	.	16F\LL	.	.	.
.	.	16G\	.	.	.
.	.	16A\	.	.	.
.	.	16F\JJ	.	.	.
!LO:TX:t=P:problem:kreska pseudotaktowa	!	!LO:TX:t=P:problem:kreska pseudotaktowa	!	!	!
2GG/	.	2B-\	.	16b-\LL	.
.	.	.	.	16cc\	.
.	.	.	.	16dd\	.
.	.	.	.	16ee\	.
!	!	!	!	!LO:TX:t=P:problem:# above	!
.	.	.	.	16ff#X\	.
.	.	.	.	16gg\	.
.	.	.	.	16aa\	.
!	!	!	!	!LO:TX:t=P:problem:# above	!
.	.	.	.	16ff#X\JJ	.
!	!	!	!	!LO:LB:g=original	!
=89-	=89-	=89-	=89-	=89-	=89-
1GG	.	16GG/LL	.	2gg\	.
.	.	16AA/	.	.	.
.	.	16BB-/	.	.	.
.	.	16C/JJ	.	.	.
.	.	16D\LL	.	.	.
.	.	16E\	.	.	.
.	.	16F\	.	.	.
.	.	16D\JJ	.	.	.
!	!	!LO:TX:t=P:problem:kreska pseudotaktowa	!	!	!
.	.	2G\	.	16g/LL	.
.	.	.	.	16a/	.
.	.	.	.	16b-/	.
.	.	.	.	16cc/JJ	.
.	.	.	.	16dd\LL	.
.	.	.	.	16ee\	.
.	.	.	.	16ffny\	.
!	!	!	!	!LO:TX:t=P:problem:kreska pseudotaktowa	!
.	.	.	.	16gg\JJ	.
=90-	=90-	=90-	=90-	=90-	=90-
!LO:TX:t=P:problem:kreska pseudotaktowa	!	!	!	!	!
1D	.	16D\LL	.	8ff\	.
.	.	16E\	.	.	.
.	.	16F\	.	4f/	.
.	.	16G\JJ	.	.	.
.	.	16A\LL	.	.	.
.	.	16B-\	.	.	.
.	.	16c\	.	8e/	.
.	.	16A\JJ	.	.	.
.	.	8d\	.	16d/LL	.
.	.	.	.	16e/	.
.	.	4D/	.	16f/	.
.	.	.	.	16g/	.
.	.	.	.	16a/	.
.	.	.	.	16b-/	.
!	!	!LO:TX:t=P:problem:kreska pseudotaktowa	!	!	!
.	.	8C/	.	16cc/	.
!	!	!	!	!LO:TX:t=P:problem:kreska pseudotaktowa	!
.	.	.	.	16a/JJ	.
=91-	=91-	=91-	=91-	=91-	=91-
2BB-/	.	16BB-/LL	.	4.dd\	.
.	.	16C/	.	.	.
.	.	16D/	.	.	.
.	.	16E/JJ	.	.	.
.	.	16F\LL	.	.	.
.	.	16G\	.	.	.
.	.	16A\	.	8cc\	.
.	.	16F\JJ	.	.	.
2GG/	.	8B-\	.	16b-\LL	.
.	.	.	.	16cc\	.
.	.	4BB-/	.	16dd\	.
.	.	.	.	16ee\	.
!	!	!	!	!LO:TX:t=P:problem:# above	!
.	.	.	.	16ff#X\	.
.	.	.	.	16gg\	.
!	!	!LO:TX:t=P:problem:kreska pseudotaktowa	!	!	!
.	.	8AA/	.	16aa\	.
!	!	!	!	!LO:TX:t=P:problem:# above	!
.	.	.	.	16ff#X\JJ	.
*	*	*custos:GG	*	*	*
!	!	!LO:LB:g=original	!	!	!
=92-	=92-	=92-	=92-	=92-	=92-
00GG	.	16GG/LL	.	4.bb-\	.
.	.	16AA/	.	.	.
.	.	16BB-/	.	.	.
.	.	16C/JJ	.	.	.
.	.	16D\LL	.	.	.
.	.	16E\	.	.	.
.	.	16F\	.	8aa\	.
.	.	16D\JJ	.	.	.
.	.	8G\	.	4gg\	.
.	.	4D/	.	.	.
.	.	.	.	4ff#X\	.
.	.	8C/	.	.	.
*	*	*	*	*custos:gg	*
!	!	!	!	!LO:LB:g=original	!
=93-	=93-	=93-	=93-	=93-	=93-
.	.	4.BB-/	.	8gg\	.
.	.	.	.	4dd\	.
.	.	8AA/	.	8cc\	.
.	.	4GG/	.	4b-/	.
!	!	!	!	!LO:TX:t=P:problem:kreska pseudotaktowa	!
.	.	4FF#X/	.	4a/	.
=94-	=94-	=94-	=94-	=94-	=94-
.	.	1GG	.	8.g/L	.
.	.	.	.	16d/Jk	.
.	.	.	.	16e/LL	.
!	!	!	!	!LO:TX:t=P:problem:# above	!
.	.	.	.	16f#X/	.
.	.	.	.	16g/	.
.	.	.	.	16a/JJ	.
.	.	.	.	16b-\LL	.
.	.	.	.	16cc\	.
.	.	.	.	16dd\	.
.	.	.	.	16ee\JJ	.
!	!	!	!	!LO:SIC:v:s=16ff#\LL	!
.	.	.	.	16ffny\LL	.
.	.	.	.	16dd\JJ	.
.	.	.	.	[8gg\	.
=95-	=95-	=95-	=95-	=95-	=95-
!	!	!LO:SIC:s=[1DD	!	!	!
.	.	[1DD;;l	.	2gg\]	.
.	.	.	.	4ff#X\	.
.	.	.	.	4ee\	.
=96-	=96-	=96-	=96-	=96-	=96-
!LO:SIC:s=1D;	!	!LO:SIC:s=1DD;]	!	!LO:SIC:s=1ff#;	!
1D;;l	.	1DD]	.	1ff#X;;l	.
==	==	==	==	==	==
*-	*-	*-	*-	*-	*-
!!!system-decoration: [(g1)]s3
!!!RDF**kern: > = above
!!!RDF**kern: < = below
!!!RDF**kern: i = editorial accidental
!!!RDF**kern: l = terminal long
!!!ENC: Filip Voros
!!!END: 2022-11-02
!!!ENC: Katarzyna Serwa
!!!ENC-modern: Andrzej Borzym
!!!END-modern: 2022-11-29
!!!END: 2022-11-17
!!!YEC: Copyright 2022 Narodowy Instytut Fryderyka Chopina (https://polishscores.org)
!!!YEM: License CC-BY-4.0 (https://creativecommons.org/licenses/by/4.0)
